trunk/public/assets/images/icons/white/move_down/file-pdf.svg

<svg width="16" height="16" xmlns="http://www.w3.org/2000/svg" viewBox="0 0 16 16" shape-rendering="geometricPrecision" fill="#fff"><defs><mask id="a"><rect width="100%" height="100%"/><path fill="#000" d="M14.934-.397l-2.04 2.036L10.86-.398l-2.472 2.47 4.51 4.51 4.508-4.51z"/></mask></defs><path fill="#cb1800" d="M12.895 3.052l-2.037-2.035L9.8 2.073l3.097 3.096 3.093-3.097-1.057-1.056"/><g mask="url(#a)"><path d="M10.055 14.302l2.54-2.338h-2.54"/><path d="M2.595 1.016v13.97h6.008v-4.47h4.802v-9.5H2.595zm9.44 8.027h-4.79v4.6H3.916V2.32h8.116v6.725z"/><path fill-rule="evenodd" clip-rule="evenodd" d="M9.795 6.744c.643.512 1.164.3 1.088.2-.23-.297-.683-.297-1.088-.2zm.834-.288c-.645-.218-1.502 0-1.47.026-.43-.213-1.014-.523-1.334-1.54-.537-1.706 0-2.256.035-1.19l.11.724s.37-.903.13-1.562c-.208-.574-.81-.488-.846.573-.02.585.12 1.464.186 1.6 0 0-.558 1.642-1.384 2.932-.8 1.25-.85.83-.656.412.23-.496.624-.757.755-.964 0 0-.61.048-1.083.86-.3.514-.335 1.79.94.406.254-.275.614-.852.778-1.195 0 0 .742-.325 2.514-.67 0 0 .478.35 1.098.493.77.177 1.562-.454.227-.907zm-3.626.54l.645-1.48c.426.908 1.032 1.093 1.032 1.093-.263.033-1.678.387-1.678.387z"/></g></svg>

<?xml version="1.0"?><!DOCTYPE svg PUBLIC "-//W3C//DTD SVG 1.1//EN" "http://www.w3.org/Graphics/SVG/1.1/DTD/svg11.dtd"><svg width="16px" height="16px" xmlns="http://www.w3.org/2000/svg" viewBox="0 0 16 16" shape-rendering="geometricPrecision" fill="#fff"><defs><mask id="move_down-path"><rect fill="#fff" width="100%" height="100%"/><polygon points="14.934,-0.397 12.895,1.639 10.858,-0.397 8.386,2.073 12.897,6.583 17.404,2.073 " fill="#000"/></mask></defs><polygon points="12.895,3.052 10.858,1.017 9.8,2.073 12.897,5.169 15.99,2.073 14.933,1.017 " fill="#cb1800"/><g mask="url(#move_down-path)"><g><polygon points="10.055,14.302 12.595,11.964 10.055,11.964"/><path d="M2.595,1.016v13.969h6.008v-4.468h4.802V1.016H2.595z M12.034,9.043h-4.79v4.601H3.917V2.318h8.116V9.043z"/></g><path fill-rule="evenodd" clip-rule="evenodd" d="M9.795,6.744c0.643,0.512,1.164,0.299,1.088,0.201 C10.653,6.647,10.2,6.647,9.795,6.744z M10.629,6.456C9.985,6.238,9.128,6.455,9.161,6.482C8.729,6.269,8.146,5.959,7.826,4.941 c-0.537-1.705,0-2.255,0.035-1.189l0.108,0.724c0,0,0.371-0.903,0.131-1.562C7.892,2.34,7.29,2.426,7.254,3.487 C7.234,4.072,7.375,4.951,7.44,5.088c0,0-0.558,1.641-1.384,2.931C5.255,9.271,5.206,8.849,5.4,8.432 c0.231-0.496,0.624-0.757,0.755-0.964c0,0-0.609,0.048-1.083,0.86c-0.299,0.514-0.335,1.79,0.941,0.406 c0.253-0.275,0.613-0.852,0.777-1.195c0,0,0.742-0.324,2.514-0.668c0,0,0.478,0.349,1.098,0.492 C11.172,7.54,11.964,6.909,10.629,6.456z M7.004,6.997l0.645-1.482c0.427,0.909,1.033,1.094,1.033,1.094 C8.419,6.643,7.004,6.997,7.004,6.997z"/></g></svg>
